static/img/in-field/sliders.svg

<svg width="1088" height="162" viewBox="0 0 1088 162" fill="none" xmlns="http://www.w3.org/2000/svg">
<rect width="1087" height="162" transform="translate(0.5)" fill="#F1F1F6"/>
<path d="M217.659 60V44.2949H219.485V58.3457H226.414V60H217.659ZM235.841 60L235.486 58.3242H235.4C234.813 59.0618 234.226 59.5632 233.638 59.8281C233.058 60.0859 232.331 60.2148 231.458 60.2148C230.29 60.2148 229.374 59.9141 228.708 59.3125C228.049 58.7109 227.719 57.8551 227.719 56.7451C227.719 54.3675 229.621 53.1214 233.424 53.0068L235.422 52.9424V52.2119C235.422 51.2881 235.221 50.6077 234.82 50.1709C234.426 49.7269 233.792 49.5049 232.919 49.5049C231.938 49.5049 230.828 49.8057 229.589 50.4072L229.041 49.043C229.621 48.7279 230.255 48.4808 230.942 48.3018C231.637 48.1227 232.331 48.0332 233.026 48.0332C234.43 48.0332 235.468 48.3447 236.141 48.9678C236.822 49.5908 237.162 50.5898 237.162 51.9648V60H235.841ZM231.812 58.7432C232.922 58.7432 233.792 58.4388 234.423 57.8301C235.06 57.2214 235.379 56.3691 235.379 55.2734V54.21L233.595 54.2852C232.177 54.3353 231.153 54.5573 230.523 54.9512C229.9 55.3379 229.589 55.943 229.589 56.7666C229.589 57.4111 229.782 57.9017 230.169 58.2383C230.563 58.5749 231.11 58.7432 231.812 58.7432ZM246.105 48.0332C247.652 48.0332 248.851 48.5632 249.704 49.623C250.563 50.6758 250.993 52.1689 250.993 54.1025C250.993 56.0361 250.559 57.54 249.693 58.6143C248.833 59.6813 247.637 60.2148 246.105 60.2148C245.339 60.2148 244.637 60.0752 243.999 59.7959C243.369 59.5094 242.839 59.0726 242.41 58.4854H242.281L241.905 60H240.626V43.2852H242.41V47.3457C242.41 48.2552 242.381 49.0716 242.324 49.7949H242.41C243.24 48.6204 244.472 48.0332 246.105 48.0332ZM245.847 49.5264C244.63 49.5264 243.752 49.8773 243.215 50.5791C242.678 51.2738 242.41 52.4482 242.41 54.1025C242.41 55.7568 242.685 56.9421 243.237 57.6582C243.788 58.3672 244.673 58.7217 245.89 58.7217C246.986 58.7217 247.802 58.3242 248.339 57.5293C248.876 56.7272 249.145 55.5778 249.145 54.0811C249.145 52.5485 248.876 51.4062 248.339 50.6543C247.802 49.9023 246.971 49.5264 245.847 49.5264ZM258.872 60.2148C257.132 60.2148 255.757 59.6849 254.747 58.625C253.745 57.5651 253.243 56.0934 253.243 54.21C253.243 52.3122 253.709 50.8047 254.64 49.6875C255.578 48.5703 256.835 48.0117 258.41 48.0117C259.886 48.0117 261.053 48.4987 261.912 49.4727C262.772 50.4395 263.201 51.7178 263.201 53.3076V54.4355H255.091C255.127 55.8177 255.474 56.8669 256.133 57.583C256.799 58.2992 257.734 58.6572 258.937 58.6572C260.204 58.6572 261.458 58.3923 262.696 57.8623V59.4521C262.066 59.7243 261.468 59.9176 260.903 60.0322C260.344 60.154 259.667 60.2148 258.872 60.2148ZM258.389 49.5049C257.444 49.5049 256.688 49.8128 256.122 50.4287C255.564 51.0446 255.234 51.8968 255.134 52.9854H261.289C261.289 51.861 261.039 51.0016 260.537 50.4072C260.036 49.8057 259.32 49.5049 258.389 49.5049ZM267.815 60H266.032V43.2852H267.815V60Z" fill="#252A2E"/>
<rect x="215.5" y="88" width="457" height="16" rx="8" fill="#A3A6B1"/>
<rect x="215.5" y="88" width="240" height="16" rx="8" fill="#217CBB"/>
<circle cx="435.5" cy="96" r="19" fill="white" stroke="#004F83" stroke-width="2"/>
<path d="M705.735 105H702.416V95.9121L702.448 94.4189L702.502 92.7861C701.951 93.3376 701.567 93.6992 701.353 93.8711L699.548 95.3213L697.947 93.3232L703.007 89.2949H705.735V105ZM720.989 97.1475C720.989 99.8903 720.538 101.921 719.636 103.238C718.741 104.556 717.358 105.215 715.489 105.215C713.677 105.215 712.31 104.535 711.386 103.174C710.469 101.813 710.011 99.8044 710.011 97.1475C710.011 94.376 710.458 92.335 711.354 91.0244C712.249 89.7067 713.627 89.0479 715.489 89.0479C717.301 89.0479 718.669 89.7354 719.593 91.1104C720.524 92.4854 720.989 94.4977 720.989 97.1475ZM713.309 97.1475C713.309 99.0739 713.473 100.456 713.803 101.294C714.139 102.125 714.701 102.54 715.489 102.54C716.263 102.54 716.821 102.118 717.165 101.272C717.509 100.427 717.681 99.0524 717.681 97.1475C717.681 95.221 717.505 93.8389 717.154 93.001C716.811 92.1559 716.256 91.7334 715.489 91.7334C714.709 91.7334 714.15 92.1559 713.813 93.001C713.477 93.8389 713.309 95.221 713.309 97.1475ZM733.558 97.1475C733.558 99.8903 733.106 101.921 732.204 103.238C731.309 104.556 729.927 105.215 728.058 105.215C726.246 105.215 724.878 104.535 723.954 103.174C723.037 101.813 722.579 99.8044 722.579 97.1475C722.579 94.376 723.027 92.335 723.922 91.0244C724.817 89.7067 726.196 89.0479 728.058 89.0479C729.869 89.0479 731.237 89.7354 732.161 91.1104C733.092 92.4854 733.558 94.4977 733.558 97.1475ZM725.877 97.1475C725.877 99.0739 726.042 100.456 726.371 101.294C726.708 102.125 727.27 102.54 728.058 102.54C728.831 102.54 729.39 102.118 729.733 101.272C730.077 100.427 730.249 99.0524 730.249 97.1475C730.249 95.221 730.074 93.8389 729.723 93.001C729.379 92.1559 728.824 91.7334 728.058 91.7334C727.277 91.7334 726.718 92.1559 726.382 93.001C726.045 93.8389 725.877 95.221 725.877 97.1475Z" fill="#252A2E"/>
<rect x="752.5" y="68" width="56" height="56" rx="4" fill="#252A2E"/>
<path d="M791.367 82.7333L769.633 95.9333L791.3 109.267L791.367 82.7333Z" fill="white"/>
<rect x="816.5" y="68" width="56" height="56" rx="4" fill="#252A2E"/>
<path d="M833.633 109.267L855.367 96.0667L833.7 82.7333L833.633 109.267Z" fill="white"/>
</svg>

<svg width="1088" height="162" fill="none" xmlns="http://www.w3.org/2000/svg"><path fill="#F1F1F6" d="M.5 0h1087v162H.5z"/><path d="M217.659 60V44.295h1.826v14.05h6.929V60h-8.755zm18.182 0l-.355-1.676h-.086c-.587.738-1.174 1.24-1.762 1.504-.58.258-1.307.387-2.18.387-1.168 0-2.084-.3-2.75-.903-.659-.601-.989-1.457-.989-2.567 0-2.377 1.902-3.624 5.705-3.738l1.998-.065v-.73c0-.924-.201-1.604-.602-2.041-.394-.444-1.028-.666-1.901-.666-.981 0-2.091.3-3.33.902l-.548-1.364a8.405 8.405 0 011.901-.741 8.318 8.318 0 012.084-.269c1.404 0 2.442.312 3.115.935.681.623 1.021 1.622 1.021 2.997V60h-1.321zm-4.029-1.257c1.11 0 1.98-.304 2.611-.913.637-.609.956-1.46.956-2.557V54.21l-1.784.075c-1.418.05-2.442.272-3.072.666-.623.387-.934.992-.934 1.816 0 .644.193 1.135.58 1.471.394.337.941.505 1.643.505zm14.293-10.71c1.547 0 2.746.53 3.599 1.59.859 1.053 1.289 2.546 1.289 4.48 0 1.933-.434 3.437-1.3 4.511-.86 1.067-2.056 1.6-3.588 1.6-.766 0-1.468-.139-2.106-.418a3.996 3.996 0 01-1.589-1.31h-.129L241.905 60h-1.279V43.285h1.784v4.06c0 .91-.029 1.727-.086 2.45h.086c.83-1.175 2.062-1.762 3.695-1.762zm-.258 1.493c-1.217 0-2.095.351-2.632 1.053-.537.695-.805 1.87-.805 3.523 0 1.655.275 2.84.827 3.556.551.71 1.436 1.064 2.653 1.064 1.096 0 1.912-.398 2.449-1.193.537-.802.806-1.951.806-3.448 0-1.533-.269-2.675-.806-3.427-.537-.752-1.368-1.128-2.492-1.128zm13.025 10.689c-1.74 0-3.115-.53-4.125-1.59-1.002-1.06-1.504-2.532-1.504-4.415 0-1.898.466-3.405 1.397-4.523.938-1.117 2.195-1.675 3.77-1.675 1.476 0 2.643.487 3.502 1.46.86.968 1.289 2.246 1.289 3.836v1.127h-8.11c.036 1.383.383 2.432 1.042 3.148.666.716 1.601 1.074 2.804 1.074 1.267 0 2.521-.265 3.759-.795v1.59a9.117 9.117 0 01-1.793.58c-.559.122-1.236.183-2.031.183zm-.483-10.71c-.945 0-1.701.308-2.267.924-.558.616-.888 1.468-.988 2.556h6.155c0-1.124-.25-1.983-.752-2.578-.501-.601-1.217-.902-2.148-.902zM267.815 60h-1.783V43.285h1.783V60z" fill="#252A2E"/><rect x="215.5" y="88" width="457" height="16" rx="8" fill="#A3A6B1"/><rect x="215.5" y="88" width="240" height="16" rx="8" fill="#217CBB"/><circle cx="435.5" cy="96" r="19" fill="#fff" stroke="#004F83" stroke-width="2"/><path d="M705.735 105h-3.319v-9.088l.032-1.493.054-1.633c-.551.552-.935.913-1.149 1.085l-1.805 1.45-1.601-1.998 5.06-4.028h2.728V105zm15.254-7.853c0 2.743-.451 4.774-1.353 6.091-.895 1.318-2.278 1.977-4.147 1.977-1.812 0-3.179-.68-4.103-2.041-.917-1.361-1.375-3.37-1.375-6.027 0-2.771.447-4.812 1.343-6.123.895-1.317 2.273-1.976 4.135-1.976 1.812 0 3.18.687 4.104 2.062.931 1.375 1.396 3.388 1.396 6.037zm-7.68 0c0 1.927.164 3.309.494 4.147.336.831.898 1.246 1.686 1.246.774 0 1.332-.422 1.676-1.268.344-.845.516-2.22.516-4.125 0-1.926-.176-3.308-.527-4.146-.343-.845-.898-1.268-1.665-1.268-.78 0-1.339.423-1.676 1.268-.336.838-.504 2.22-.504 4.146zm20.249 0c0 2.743-.452 4.774-1.354 6.091-.895 1.318-2.277 1.977-4.146 1.977-1.812 0-3.18-.68-4.104-2.041-.917-1.361-1.375-3.37-1.375-6.027 0-2.771.448-4.812 1.343-6.123.895-1.317 2.274-1.976 4.136-1.976 1.811 0 3.179.687 4.103 2.062.931 1.375 1.397 3.388 1.397 6.037zm-7.681 0c0 1.927.165 3.309.494 4.147.337.831.899 1.246 1.687 1.246.773 0 1.332-.422 1.675-1.268.344-.845.516-2.22.516-4.125 0-1.926-.175-3.308-.526-4.146-.344-.845-.899-1.268-1.665-1.268-.781 0-1.34.423-1.676 1.268-.337.838-.505 2.22-.505 4.146z" fill="#252A2E"/><rect x="752.5" y="68" width="56" height="56" rx="4" fill="#252A2E"/><path d="M791.367 82.733l-21.734 13.2 21.667 13.334.067-26.534z" fill="#fff"/><rect x="816.5" y="68" width="56" height="56" rx="4" fill="#252A2E"/><path d="M833.633 109.267l21.734-13.2L833.7 82.733l-.067 26.534z" fill="#fff"/></svg>
